X:1
T:Title
%%score { ( 1 4 ) | ( 2 3 ) }
L:1/8
M:3/4
K:Eb
V:1 treble nm="Grand Piano"
V:4 treble 
V:2 bass 
V:3 bass 
V:1
 z2 z2[Q:1/4=116] [B,EG]2 | [EGB]4 [EAc]2 | [B,EG]4 [B,DF]2 | [B,EG]2 [GB]2 [EAc]2 | %4
 [B,EG]4 [A,DF]2 | [CE]2 G2 [Ec]2 | [EB]4 [=A,EF]2 | [B,DB]6- |[M:2/4] [B,DB]2 z2 | %9
[M:1/4] [B,EG]2 |[M:3/4] [EGB]4 [EAc]2 | [B,EG]4 [B,DF]2 | [B,EG]2 [GB]2 [EAc]2 | [B,EG]4 [EGB]2 | %14
 A2- [Ad]2 [Ge]2 | [EG]4 [DF]2 | E6- |[M:2/4] E2 z2 |] %18
V:2
 z2 z2 E,2 | E,4 E,2 | E,4 B,,2 | z2 E2 E,2 | E,4 B,,2 | z2 E2 [A,,A,]2 | E,2 z2 z2 | B,,6- | %8
[M:2/4] B,,2 z2 |[M:1/4] E,2 |[M:3/4] E,4 E,2 | E,4 B,,2 | z2 E2 E,2 | E,4 E,2 | %14
 A,2 [F,B,]2 [E,B,]2 | [B,,B,]4 [B,,A,]2 | [E,G,]6- |[M:2/4] [E,G,]2 z2 |] %18
V:3
 x6 | x6 | x6 | E,4 z2 | x6 | C,4 z2 | G,2- [C,G,]2 C,2 | x6 |[M:2/4] x4 |[M:1/4] x2 |[M:3/4] x6 | %11
 x6 | E,4 z2 | x6 | x6 | x6 | x6 |[M:2/4] x4 |] %18
V:4
 x6 | x6 | x6 | x6 | x6 | G,4 z2 | x6 | x6 |[M:2/4] x4 |[M:1/4] x2 |[M:3/4] x6 | x6 | x6 | x6 | %14
 [Ec]2 z2 z2 | x6 | x6 |[M:2/4] x4 |] %18

